common/app/assets/images/global/expand-white.svg

<svg xmlns="http://www.w3.org/2000/svg" width="22" height="22"><path fill="#fff" d="M3.4 20.2l5.6-5.7-1.5-1.5-5.7 5.6-.8-4.6h-1v7.5l.5.5h7.5v-1l-4.6-.8m15.3-18.3l-5.7 5.7 1.4 1.4 5.7-5.7.5 4.7h1.2v-7.4l-.5-.5h-7.3v1.2l4.7.6"/></svg>

<svg xmlns="http://www.w3.org/2000/svg" width="22" height="22"><path fill="#fff" d="M3.4 20.2L9 14.5 7.5 13l-5.7 5.6L1 14H0v7.5l.5.5H8v-1l-4.6-.8M18.7 1.9L13 7.6 14.4 9l5.7-5.7.5 4.7h1.2V.6l-.5-.5H14v1.2l4.7.6"/></svg>
